X:1
T:Henry, My Son
M:4/4
L:1/8
K:G
 B2 BA G4| d2 eB d4| B2 BA G4| A3/2 A/2 A3/2 B/2 A4| B4 A G3| d4 c B3|\
 e2 e2 d2 GA| B B2 B A2 GA| B B2 G A2 A2| G4 z4|
